Sources/FrostedUI/Resources/Icons.xcassets/medalCheck12.imageset/medal-check-12.svg

<svg
  width="12"
  height="12"
  viewBox="0 0 12 12"
  fill="none"
  xmlns="http://www.w3.org/2000/svg"
  data-fui-icon="true"
>
  <circle
    cx="6"
    cy="7.5"
    r="2.75"
    stroke="currentColor"
    stroke-width="1.5"
    stroke-miterlimit="16"
  />
  <path
    d="M5.03846 4.5C5.03846 4.5 4.3387 3.68335 4.07476 2.36853 3.96606 1.82705 3.52789 1.375 2.97561 1.375H2.125C1.71079 1.375 1.36729 1.71417 1.44304 2.1214 1.83672 4.23751 3.805 5.25 3.805 5.25M6.96154 4.5C6.96154 4.5 7.6613 3.68335 7.92524 2.36853 8.03394 1.82705 8.47211 1.375 9.02439 1.375H9.875C10.2892 1.375 10.6327 1.71417 10.557 2.1214 10.1633 4.23751 8.195 5.25 8.195 5.25"
    stroke="currentColor"
    stroke-width="1.5"
    stroke-linejoin="round"
  />
  <path
    d="M5.25 7.575L5.7 8.025L6.75 6.975"
    stroke="currentColor"
    stroke-linecap="round"
    stroke-linejoin="round"
  />
</svg>

<svg xmlns="http://www.w3.org/2000/svg" width="12" height="12" fill="none" data-fui-icon="true" viewBox="0 0 12 12"><circle cx="6" cy="7.5" r="2.75" stroke="currentColor" stroke-miterlimit="16" stroke-width="1.5"/><path stroke="currentColor" stroke-linejoin="round" stroke-width="1.5" d="M5.038 4.5s-.7-.817-.963-2.131c-.109-.542-.547-.994-1.1-.994h-.85c-.414 0-.758.34-.682.746.394 2.117 2.362 3.129 2.362 3.129m3.157-.75s.7-.817.963-2.131c.109-.542.547-.994 1.1-.994h.85c.414 0 .758.34.682.746-.394 2.117-2.362 3.129-2.362 3.129"/><path stroke="currentColor" stroke-linecap="round" stroke-linejoin="round" d="m5.25 7.575.45.45 1.05-1.05"/></svg>
